Origami/64x64/apps/jango.svg

<svg width="64" height="64" version="1" xmlns="http://www.w3.org/2000/svg">
 <rect transform="matrix(0,-1,-1,0,0,0)" x="-61" y="-60" width="56" height="56" rx="2.8" ry="2.8" style="opacity:.2"/>
 <rect transform="matrix(0,-1,-1,0,0,0)" x="-60" y="-60" width="56" height="56" rx="2.8" ry="2.8" style="fill:#19416f"/>
 <path d="m34 11a4 4 0 0 0 -4 4 4 4 0 0 0 4 4 4 4 0 0 0 4 -4 4 4 0 0 0 -4 -4zm-4.667968 10c-1.846668 0-3.332032 1.338-3.332032 3s1.485364 3 3.332032 3h2.667968v17.597656c0 1.595218-0.579824 2.892054-2.074218 3.65625a4 4 0 0 0 -3.925782 -3.253906 4 4 0 0 0 -4 4 4 4 0 0 0 4 4c7.5 0 12 0.0013 12-8.402344v-23.597656h-5.332032-0.667968-2.667968z" style="opacity:.2"/>
 <g transform="matrix(2,0,0,2,-2,0)">
  <path transform="matrix(.5 0 0 .5 1 0)" d="m34 10a4 4 0 0 0 -4 4 4 4 0 0 0 4 4 4 4 0 0 0 4 -4 4 4 0 0 0 -4 -4zm-4.666016 10c-1.847036 0-3.333984 1.338-3.333984 3s1.486948 3 3.333984 3h2.666016v17.595703c0 1.596312-0.575579 2.900081-2.072266 3.664063a4 4 0 0 0 -3.927734 -3.259766 4 4 0 0 0 -4 4 4 4 0 0 0 4 4c7.5 0 12-6.73e-4 12-8.404297v-23.595703h-5.333984-3.332032z" style="fill:#ffffff"/>
 </g>
 <path d="M 6.8007812,4 C 5.2495812,4 4,5.2495812 4,6.8007812 l 0,1 C 4,6.2495813 5.2495812,5 6.8007812,5 L 57.199219,5 C 58.750419,5 60,6.2495812 60,7.8007812 l 0,-1 C 60,5.2495813 58.750419,4 57.199219,4 L 6.8007812,4 Z" style="fill:#ffffff;opacity:.1"/>
</svg>

<svg xmlns="http://www.w3.org/2000/svg" width="64" height="64" version="1">
 <rect style="opacity:0.2" width="56" height="56" x="-61" y="-60" rx="2.8" ry="2.8" transform="matrix(0,-1,-1,0,0,0)"/>
 <rect style="fill:#19416f" width="56" height="56" x="-60" y="-60" rx="2.8" ry="2.8" transform="matrix(0,-1,-1,0,0,0)"/>
 <path style="opacity:0.2" d="m 34,11 a 4,4 0 0 0 -4,4 4,4 0 0 0 4,4 4,4 0 0 0 4,-4 4,4 0 0 0 -4,-4 z M 29.332032,21 C 27.485364,21 26,22.338 26,24 c 0,1.662 1.485364,3 3.332032,3 L 32,27 32,44.597656 c 0,1.595218 -0.579824,2.892054 -2.074218,3.65625 A 4,4 0 0 0 26,45 a 4,4 0 0 0 -4,4 4,4 0 0 0 4,4 c 7.5,0 12,0.0013 12,-8.402344 L 38,21 32.667968,21 32,21 29.332032,21 Z"/>
 <g transform="matrix(2,0,0,2,-2,0)">
  <path style="fill:#ffffff" d="m 34,10 a 4,4 0 0 0 -4,4 4,4 0 0 0 4,4 4,4 0 0 0 4,-4 4,4 0 0 0 -4,-4 z M 29.333984,20 C 27.486948,20 26,21.338 26,23 c 0,1.662 1.486948,3 3.333984,3 L 32,26 32,43.595703 c 0,1.596312 -0.575579,2.900081 -2.072266,3.664063 A 4,4 0 0 0 26,44 a 4,4 0 0 0 -4,4 4,4 0 0 0 4,4 c 7.5,0 12,-6.73e-4 12,-8.404297 L 38,20 l -5.333984,0 -3.332032,0 z" transform="matrix(0.5,0,0,0.5,1,0)"/>
 </g>
 <path style="opacity:0.1;fill:#ffffff" d="M 6.8007812,4 C 5.2495812,4 4,5.2495812 4,6.8007812 l 0,1 C 4,6.2495813 5.2495812,5 6.8007812,5 L 57.199219,5 C 58.750419,5 60,6.2495812 60,7.8007812 l 0,-1 C 60,5.2495813 58.750419,4 57.199219,4 L 6.8007812,4 Z"/>
</svg>
